public/svgs/rename.svg

<svg viewBox="0 0 10.01 9.95" xmlns="http://www.w3.org/2000/svg"><path d="m9.64 2-1.64-1.63a1.27 1.27 0 0 0 -1.79 0l-6.21 6.17v3.46h3.41l6.22-6.21a1.23 1.23 0 0 0 .38-.9 1.3 1.3 0 0 0 -.37-.89zm-6.64 7h-2v-2l4.49-4.49 2 2zm5.93-5.92-.73.72-2-2 .73-.72a.27.27 0 0 1 .39 0l1.61 1.61a.27.27 0 0 1 .07.19.28.28 0 0 1 -.07.2z" fill="#0e1c2a"/></svg>

<svg id="Layer_1" data-name="Layer 1" xmlns="http://www.w3.org/2000/svg" viewBox="0 0 10.01 9.95"><defs><style>.cls-1{fill:#0e1c2a;}</style></defs><path class="cls-1" d="M9.64,2,8,.37a1.27,1.27,0,0,0-1.79,0L0,6.54V10H3.41L9.63,3.79a1.23,1.23,0,0,0,.38-.9A1.3,1.3,0,0,0,9.64,2ZM3,9H1V7L5.49,2.51l2,2ZM8.93,3.08,8.2,3.8l-2-2,.73-.72a.27.27,0,0,1,.39,0L8.93,2.69A.27.27,0,0,1,9,2.88.28.28,0,0,1,8.93,3.08Z"/></svg>
